X:3
T:Johnny O'Leary's Slide
T:House Party, The
T:Toormore Slide, The
M:12/8
L:1/8
R:slide
H:See also #28\par
Z:id:hn-slide-36\par
K:Bm
F2B BAB d2e f2d|e2e efe c2e a3|
F2B BAB d2e f2d|1 e2d B2A B3 BAG:|2 e2d B2A B3 d2e||
fgf efe ded cdc|B2e edB A2F F2E|
F2B BAB d2e f2d|1 e2d B2A B3 d2e:|2 e2d B2A B3 BAG||
